X: 1
T:The Sally Gardens
T:Maids of the Mourne Shore
M:4/4
L:1/4
C:Traditional
S:Soodlum's Tin Whistle Book
R:Air
K:D
D E |: F2 E D | E2 F A | B4 | A2 d A | B2 A F | E3 D |
[1 D4- | D2 D E :|
[2 D4- | D3 A ||
d2 c A | B2 d2 | c3 B | A3 A | B2 A F | B c d e |
d4- | d2 D E | F2 E D | E2 F A | B4 | A2 d A | B2 A F |
E3 D | D4- | D2 |]
